X:1
T:Title
%%score 1 2
L:1/8
Q:1/4=100
M:4/4
K:C
V:1 treble nm="Grand Piano, Soprano"
V:2 bass nm="Choir Pad, In That Home Over There"
V:1
 [EG][EG] [Ge]2 [Fd][Fc] [Fd]2 | [Fc]>[FA] [EG]6 | [EG][EG] [Ec]2 [GB][FA] [EG]2 | %3
w: By~R.~A.~Glenn * * * * *|||
 [EG][CE] [B,D]6 | [CE][DF] [EG]2 [Ec][Ec] [Ge]2 | [Fd][Ec] [FA]6 | [FA][FA] [EG]2 [EG][Ec] [FB]2 | %7
w: ||||
 [FA][FB] [Ec]6 | [DB][Ec] [Fd]6 | [Ec][Gd] [Ge]6 | [EG][EG] [FA]2 [FA][FA] [Ac]2 | %11
w: ||||
 [Ac][FA] [EG]6 | [EG][EG] [Ec]2 [Ec][Ec] [Ge]2 | [Fd][Ec] [FA]6 | [Ac][FA] [EG]2 [Ec][Gd] [Ge]2 | %15
w: ||||
 [Gd][Fd] [Ec]6- | [Ec]2 z2 z4 |] %17
w: ||
V:2
 [C,C][C,C] [C,C]2 [C,C][C,A,] [F,A,]2 | [F,A,]>[F,C] [C,C]6 | %2
 [C,C][C,C] [C,C]2 [C,C][C,C] [C,C]2 | [C,C][C,G,] [G,,G,]6 | %4
 [C,G,][C,G,] [C,C]2 [C,C][C,C] [C,C]2 | [C,C][C,C] [F,C]6 | [F,C][F,C] [G,C]2 [G,C][G,C] [G,D]2 | %7
 [G,D][G,D] [C,C]6 | G,G, [G,B,]2 [G,B,][G,B,] [G,B,]2 | [G,C][G,B,] [C,C]2 [C,C][C,C] [C,C]2 | %10
 [C,C][C,C] [F,C]2 [F,C][F,C] [F,C]2 | [F,C][F,C] [C,C]2 [C,C][C,C] [C,C]2 | %12
 [C,C][C,C] [C,G,]2 [C,G,][C,G,] [C,C]2 | [C,C][C,C] [F,C]2 [F,C][F,C] [F,C]2 | %14
 [F,C][F,C] [G,C]2 G,[G,B,] [G,C]2 | [G,B,][G,B,] [C,C]6- | [C,C]2 z2 z4 |] %17

